X: 1
T: The Island Of Woods
R: reel
M: 4/4
L: 1/8
K: Dmaj
dc|B3A A2AB|A2AB AFdc|B3A B3A|B2Bc BA d/e/f|
g3f edfe|f2ed d2cA|d2cA GAFD|[1E4-EA:|[2E4-EE||
F/G/A|BAAF E3D|EFED D2 F/G/A|BdAd GDFD|E4-EE F/G/A|
BAAF E3D|EFED D2 F/G/A|GAFD EA,DC|A,4-A,A,||


Tune 8940	Setting 24253

